X: 100376
T: Johnny Reidy's Slide
S: S.O Driscoll
Z: B.Black
M: 12/8
L: 1/8
R: slide
K: Edor
ed | Bee e2 f e2 d B2 A | B2 c dBA B2 c dBA |
Bee e2 f e2 d B2 c | def a2 f e3-e :|
fa | b3 b2 a b2 a f2 e | d2 f fef d2 f agf |
b3 b2 a b2 a f2 e | def a2 f e3-e :|
